build/Karasa-Jaga/scalable/status/battery-caution-symbolic.svg

<svg height="24" viewBox="0 0 24 24" width="24" xmlns="http://www.w3.org/2000/svg"><path d="m10.509766 2.7148438v1.3457031c.977338.261605 1.968019.2949202 2.980468 0v-1.3457031c-.993843.2390723-1.986625.2249557-2.980468 0zm-1.3476566 1.375a1.1342983 1.1342983 0 0 0 -1.1601563 1.1347656v2.5859375.4003906 2.5859375.402344 2.583984.402344 2.583984.402344 2.583984a1.1342983 1.1342983 0 0 0 .8417969 1.095703c.703893.188412 1.420326.313906 2.144531.38086v-1.152344c-.619741-.063867-1.237882-.159954-1.8515622-.324219v-2.583984-.402344-2.583984-.402344-2.583984-.402344-2.5859375-.4003906-2.5859375c1.9094882.4322112 3.8170752.4593337 5.7265622 0v2.5859375.4003906 2.5859375.402344 2.257812h1.134766v-2.257812-.402344-2.5859375-.4003906-2.5859375a1.1342983 1.1342983 0 0 0 -1.400391-1.1035156c-1.732612.4167858-3.450117.3966072-5.2109372-.0019532a1.1342983 1.1342983 0 0 0 -.2246094-.0292968zm6.8222656 12.3632812v2.003906h.003906v-2.003906z" fill="#bebebe"/><path d="m9.2792969 17.246094v2.455078c.5667652.151707 1.1365431.242953 1.7089841.304687v-2.503906c-.569977-.050629-1.1390063-.126845-1.7089841-.255859z" fill="#e30000"/><path d="m12.861062 14.455121c-.49245 0-.875.38256-.875.875v6.25c0 .49244.38255.875.875.875h6.25c.49245 0 .875-.38256.875-.875v-6.25c0-.49244-.38255-.875-.875-.875zm2.125 1h2v4h-2zm0 5h2v1h-2z" fill="#f57900"/></svg>

<?xml version="1.0" encoding="UTF-8" standalone="no"?>
<!-- Created with Inkscape (http://www.inkscape.org/) -->

<svg
   xmlns:dc="http://purl.org/dc/elements/1.1/"
   xmlns:cc="http://creativecommons.org/ns#"
   xmlns:rdf="http://www.w3.org/1999/02/22-rdf-syntax-ns#"
   xmlns:svg="http://www.w3.org/2000/svg"
   xmlns="http://www.w3.org/2000/svg"
   xmlns:sodipodi="http://sodipodi.sourceforge.net/DTD/sodipodi-0.dtd"
   xmlns:inkscape="http://www.inkscape.org/namespaces/inkscape"
   version="1.1"
   id="svg2"
   width="24"
   height="24"
   viewBox="0 0 24 24"
   sodipodi:docname="battery-caution-symbolic.svg"
   inkscape:version="0.92.2 (unknown)"
   inkscape:export-filename="/usr/share/icons/Karasa Jaga/24x24/status/gpm-battery-100-charging.png"
   inkscape:export-xdpi="96"
   inkscape:export-ydpi="96">
  <metadata
     id="metadata8">
    <rdf:RDF>
      <cc:Work
         rdf:about="">
        <dc:format>image/svg+xml</dc:format>
        <dc:type
           rdf:resource="http://purl.org/dc/dcmitype/StillImage" />
        <dc:title></dc:title>
      </cc:Work>
    </rdf:RDF>
  </metadata>
  <defs
     id="defs6" />
  <sodipodi:namedview
     pagecolor="#ffffff"
     bordercolor="#666666"
     borderopacity="1"
     objecttolerance="10"
     gridtolerance="10"
     guidetolerance="10"
     inkscape:pageopacity="0"
     inkscape:pageshadow="2"
     inkscape:window-width="1364"
     inkscape:window-height="704"
     id="namedview4"
     showgrid="false"
     inkscape:zoom="13.965359"
     inkscape:cx="8.8619091"
     inkscape:cy="9.9767583"
     inkscape:window-x="0"
     inkscape:window-y="0"
     inkscape:window-maximized="0"
     inkscape:current-layer="svg2"
     inkscape:snap-global="true"
     showguides="false">
    <inkscape:grid
       type="xygrid"
       id="grid3703" />
  </sodipodi:namedview>
  <path
     style="opacity:1;fill:#bebebe;fill-opacity:1;stroke:none;stroke-width:0.65779859"
     d="M 10.509766 2.7148438 L 10.509766 4.0605469 C 11.487104 4.3221519 12.477785 4.3554671 13.490234 4.0605469 L 13.490234 2.7148438 C 12.496391 2.9539161 11.503609 2.9397995 10.509766 2.7148438 z M 9.1621094 4.0898438 A 1.1342983 1.1342983 0 0 0 8.0019531 5.2246094 L 8.0019531 7.8105469 L 8.0019531 8.2109375 L 8.0019531 10.796875 L 8.0019531 11.199219 L 8.0019531 13.783203 L 8.0019531 14.185547 L 8.0019531 16.769531 L 8.0019531 17.171875 L 8.0019531 19.755859 A 1.1342983 1.1342983 0 0 0 8.84375 20.851562 C 9.547643 21.039974 10.264076 21.165468 10.988281 21.232422 L 10.988281 20.080078 C 10.36854 20.016211 9.750399 19.920124 9.1367188 19.755859 L 9.1367188 17.171875 L 9.1367188 16.769531 L 9.1367188 14.185547 L 9.1367188 13.783203 L 9.1367188 11.199219 L 9.1367188 10.796875 L 9.1367188 8.2109375 L 9.1367188 7.8105469 L 9.1367188 5.2246094 C 11.046207 5.6568206 12.953794 5.6839431 14.863281 5.2246094 L 14.863281 7.8105469 L 14.863281 8.2109375 L 14.863281 10.796875 L 14.863281 11.199219 L 14.863281 13.457031 L 15.998047 13.457031 L 15.998047 11.199219 L 15.998047 10.796875 L 15.998047 8.2109375 L 15.998047 7.8105469 L 15.998047 5.2246094 A 1.1342983 1.1342983 0 0 0 14.597656 4.1210938 C 12.865044 4.5378796 11.147539 4.517701 9.3867188 4.1191406 A 1.1342983 1.1342983 0 0 0 9.1621094 4.0898438 z M 15.984375 16.453125 L 15.984375 18.457031 L 15.988281 18.457031 L 15.988281 16.453125 L 15.984375 16.453125 z "
     id="path9846" />
  <path
     style="opacity:1;fill:#e30000;fill-opacity:1;stroke:none;stroke-width:0.62490869"
     d="M 9.2792969 17.246094 L 9.2792969 19.701172 C 9.8460621 19.852879 10.41584 19.944125 10.988281 20.005859 L 10.988281 17.501953 C 10.418304 17.451324 9.8492747 17.375108 9.2792969 17.246094 z "
     id="rect6102" />
  <path
     inkscape:connector-curvature="0"
     id="rect6718-3"
     style="color:#bebebe;fill:#f57900"
     d="m 12.861062,14.455121 c -0.49245,0 -0.875,0.38256 -0.875,0.875 v 6.25 c 0,0.49244 0.38255,0.875 0.875,0.875 h 6.25 c 0.49245,0 0.875,-0.38256 0.875,-0.875 v -6.25 c 0,-0.49244 -0.38255,-0.875 -0.875,-0.875 z m 2.125,1 h 2 v 4 h -2 z m 0,5 h 2 v 1 h -2 z"
     class="warning" />
</svg>
